G54	 (Select Relative Coordinate System)
(tool change to 4.7752 mm Carbide End Mill)
T4 M06
G17 G90 G21
(Sketch)
G00 X70.55 Y42.555 S7000 M03
Z2
G01 Z-1 F100
G03X68.55 Y40.555 I0 J-2 F840
G01 X68.55 Y-37.2
G02X56.163 Y-49.587 I-12.387 J0
G01 X-58.73 Y-49.587
G02X-71.118 Y-37.2 I0 J12.387
G01 X-71.118 Y40.555
G03X-73.118 Y42.555 I-2 J0
G00 Z5
M02
